icons/alerts/bell-heart-24.svg

<svg width="24" height="24" viewBox="0 0 24 24" fill="none" xmlns="http://www.w3.org/2000/svg">
<path fill-rule="evenodd" clip-rule="evenodd" d="M16.9507 1.00114C15.4231 1.00157 14.0005 2.34421 14 4.12442C13.9995 5.98935 15.3177 7.46744 16.3494 8.36466L16.3515 8.36645C16.967 8.89762 17.6308 9.36882 18.3328 9.77303C18.3992 9.81118 18.4662 9.84825 18.5338 9.88423L18.5375 9.88618C18.6801 9.96102 18.8381 10 18.9984 10C19.146 9.99996 19.2917 9.96682 19.4251 9.90312C19.4396 9.89651 19.4539 9.8894 19.468 9.88179C19.5324 9.84697 19.5981 9.81061 19.664 9.7728L19.6649 9.77228C19.7843 9.70346 19.9539 9.60316 20.1566 9.47355C20.6785 9.14078 21.1763 8.77018 21.6462 8.3646L21.6481 8.36302C22.6801 7.46622 23.9995 5.98701 24 4.12203C24.0005 2.34142 22.5781 0.999575 21.051 1C20.2419 1.00023 19.5392 1.31003 19.0007 1.81485C18.4625 1.31026 17.7596 1.00092 16.9507 1.00114ZM15.4318 4.12402C15.4321 3.1513 16.2135 2.46344 16.9503 2.46323C17.4687 2.46309 17.8999 2.6943 18.2156 3.09184C18.6158 3.59571 19.3843 3.59576 19.785 3.09154C20.1012 2.69362 20.5323 2.46224 21.0506 2.46209C21.787 2.46189 22.5685 3.14932 22.5682 4.12243C22.5679 5.29398 21.7053 6.3938 20.7214 7.24895C20.3041 7.60901 19.8613 7.93853 19.398 8.23399C19.2379 8.33637 19.1013 8.41797 18.9988 8.47755C18.3892 8.12344 17.8128 7.71266 17.277 7.25041C16.293 6.39444 15.4315 5.29556 15.4318 4.12402Z" fill="black"/>
<path fill-rule="evenodd" clip-rule="evenodd" d="M5 11.539V7C5 3.8524 7.786 1.43531 11.0852 1.05287C11.4463 1.01101 11.7655 1.26877 11.8335 1.62587C11.9199 2.07963 11.5703 2.49738 11.1125 2.55891C8.44183 2.91782 6.5 4.86601 6.5 7V11.539C6.50026 12.4767 6.22294 13.3936 5.703 14.174L3.503 17.472L3.5 17.482L3.501 17.489L3.505 17.495L3.511 17.499L3.518 17.5H20.482L20.489 17.499L20.495 17.495L20.499 17.489L20.5 17.483C20.5001 17.4794 20.499 17.4759 20.497 17.473L18.7136 14.7975C18.484 14.4531 18.577 13.9878 18.9213 13.7581C19.2658 13.5283 19.7313 13.6212 19.9611 13.9657L21.745 16.64C21.8974 16.8686 21.9849 17.1343 21.9982 17.4087C22.0114 17.6831 21.95 17.956 21.8203 18.1983C21.6907 18.4405 21.4977 18.643 21.262 18.7842C21.0263 18.9254 20.7567 19 20.482 19H15.5C15.5 19.4596 15.4095 19.9148 15.2336 20.3394C15.0577 20.764 14.7999 21.1499 14.4749 21.4749C14.1499 21.7999 13.764 22.0577 13.3394 22.2336C12.9148 22.4095 12.4596 22.5 12 22.5C11.5404 22.5 11.0852 22.4095 10.6606 22.2336C10.236 22.0577 9.85013 21.7999 9.52513 21.4749C9.20012 21.1499 8.94231 20.764 8.76642 20.3394C8.59053 19.9148 8.5 19.4596 8.5 19H3.519C3.24424 19.0002 2.97457 18.9259 2.73875 18.7849C2.50293 18.6439 2.3098 18.4415 2.17995 18.1994C2.0501 17.9572 1.98841 17.6844 2.00145 17.4099C2.01449 17.1355 2.10178 16.8697 2.254 16.641L4.454 13.342C4.81001 12.8081 5 12.1807 5 11.539ZM14 19H10C10 19.5304 10.2107 20.0391 10.5858 20.4142C10.9609 20.7893 11.4696 21 12 21C12.5304 21 13.0391 20.7893 13.4142 20.4142C13.7893 20.0391 14 19.5304 14 19Z" fill="black"/>
</svg>

<svg xmlns="http://www.w3.org/2000/svg" width="24" height="24"><path fill-rule="evenodd" d="M16.95 1.001c-1.527 0-2.95 1.343-2.95 3.123 0 1.865 1.318 3.343 2.35 4.24l.002.002a12.841 12.841 0 002.182 1.518l.004.002a.991.991 0 00.93-.004c.064-.035.13-.071.196-.11a12.867 12.867 0 001.981-1.408l.003-.001C22.68 7.466 24 5.987 24 4.122 24 2.342 22.578 1 21.051 1c-.81 0-1.512.31-2.05.815A2.955 2.955 0 0016.95 1zm-1.518 3.123c0-.973.781-1.66 1.518-1.66.519 0 .95.23 1.266.628.4.504 1.168.504 1.569 0 .316-.398.747-.63 1.266-.63.736 0 1.518.687 1.517 1.66 0 1.172-.863 2.272-1.847 3.127A11.457 11.457 0 0119 8.478a11.409 11.409 0 01-1.722-1.228c-.984-.856-1.846-1.954-1.845-3.126z"/><path fill-rule="evenodd" d="M5 11.539V7c0-3.148 2.786-5.565 6.085-5.947a.691.691 0 01.748.573c.087.454-.263.871-.72.933C8.442 2.918 6.5 4.866 6.5 7v4.539a4.75 4.75 0 01-.797 2.635l-2.2 3.298-.003.01.001.007.004.006.006.004.007.001h16.964l.007-.001.006-.004.004-.006.001-.006a.017.017 0 00-.003-.01l-1.783-2.675a.75.75 0 011.247-.832l1.784 2.674A1.518 1.518 0 0120.482 19H15.5a3.5 3.5 0 11-7 0H3.519a1.518 1.518 0 01-1.265-2.359l2.2-3.299A3.25 3.25 0 005 11.539zM14 19h-4a2 2 0 004 0z"/></svg>
